!!!!SEGMENT: pl-wtm--r-2519--001_hertz-michal--kanon.krn
!!!cenid: 18xx:3085
!!!COM: Hertz, Michał
!!!COM-rismID: pe41023359
!!!CDT: 1844/09/28-~1918
!!!CNT: Polish
!!!OTL: Kanon [1]
!!!PDT:
!!!AGN:
!!!SMS-siglum: PL-Wtm
!!!SMS-shelfmark: R 2519
!!!SMS-shelfwork: 001 W
!!!SMS-variant:
!!!SMS-altvar:
!!!NIFC-rismSourceID: 1001082119
!!!NIFC-islandoraID:
!!!URL-pdf-islandora:
!!!URL-scan:
!!!ONB-nifc: UWAGA: 9 Kanonów num. 001-009. Skan 0004
!!!AIN: 2 piano
!!!key: C
**kern	**kern
*part2	*part1
*staff2	*staff1
*I"[Fortepian]	*I"[Fortepian]
*I'	*I'
*Ipiano	*Ipiano
*ICklav	*ICklav
*clefF4	*clefG2
*k[]	*k[]
*C:	*C:
*M2/4	*M2/4
*>[A,B,B1,B,B2,C]	*>[A,B,B1,B,B2,C]
=1	=1
*>A	*>A
*2\right	*2\right
*^	*
!!LO:TX:t=P:problem:all\left, middle, right:global
!LO:TX:t=P:problem:t.1-3 po poprawkach ołówkowych	!	!
4c/	8r	2ryy
.	8C\	.
8B/L	4G\	.
8A/J	.	.
=2!|:	=2!|:	=2!|:
*>B	*>B	*>B
[4G/	16G\LL	8r
.	16F\	.
.	16E\	8c/
.	16D\JJ	.
16G/L]	8C\L	[4g/
16A/	.	.
!	!LO:TX:t=P:problem:trill placement inside of the staff	!
16B/	8BBt>\J	.
16c/J	.	.
=3	=3	=3
8.c/L	8r	16g/LL]
.	.	16f/
.	8AA/	16e/
16B/JJ	.	16d/JJ
8A/L	[>4E\	8c/L
8G/J	.	8Bt</J
*v	*v	*
=4	=4
16E\LL]	8r
16D\	.
16C\	8A/
16BB\JJ	.
8AA/L	[4e/
8GGT</J	.
=5	=5
8r	16e/LL]
.	16d/
8AA/	16c/
.	16B/JJ
16C\LL	8A/L
16D\J	.
[8E\J	8GT</J
=6	=6
16E\LL]	8r
16D\	.
16C\	8A/
16BB\JJ	.
8AA/L	16c/LL
.	16d/J
8GG/J	[8e/J
=7	=7
8FF#X/	16e/LL]
.	16d/
4F#yXt\	16c/
.	16B/JJ
.	8A/L
[8E\	8G/J
=8	=8
!LO:TX:t=P:problem:takt po poprawkach ołówkowych	!
8.E\L]	8F#X/
!	!LO:SIC:v:s=4f#/
.	4f/
!LO:SIC:v:s=32F#\	!
32F\	.
32E\J	.
8D\L	.
8G\J	[>8e/
!!LO:LB:g=original
=9	=9
!!LO:TX:a:B:t=I
*>B1	*>B1
!!LO:TX:t=P:problem:oznaczenie wolty (I) na środku taktu
!	!LO:TX:t=P:problem:koniec łuku na dole
!	!LO:TX:t=P:problem:takt po poprawkach ołówkowych
8r	8e/L]
8C\	16fn/
.	16e/J
4G\	8d/L
.	8g/J
=10:|!	=10:|!
!!LO:TX:a:B:t=II
*>B2	*>B2
!!LO:TX:t=P:problem:oznaczenie wolty (II) na środku taktu
!	!LO:TX:t=P:problem:zakończenie łuku
8r	4e/)
8G\L	.
!LO:TX:t=P:problem:takt po poprawkach ołówkowych	!
8Fn\	8d/L
8E\J	8g/J
=11	=11
*>C	*>C
16E\LL	8r
16D\	.
16C\	8g/L
16BB\JJ	.
16AA\LL	8f/
16BB\	.
16C\	8e/J
16D\JJ	.
=12	=12
8C\	16e/LL
.	16d/
4.E\	16c/
.	16B/JJ
.	16A/LL
.	16B/
.	16c/
.	16d/JJ
=13	=13
16E\LL	8c/
16F#iX\	.
16G\	4.e/
16A\JJ	.
8G\L	.
8F#\J	.
=14	=14
8E\	16e/LL
.	16f#X/
4E\	16g/
.	16a/JJ
.	8g/L
8A\	8f#/J
=15	=15
16c\LL	8e/
16B\	.
16A\	4e/
16B\JJ	.
8c\L	.
8Fn\J	8a/
=16	=16
4.E\	16cc\LL
.	16b\
.	16a\
.	16b\JJ
.	8cc\L
8A\	8f\J
=17	=17
16G\LL	4.e/
16F\	.
16E\	.
16D\JJ	.
8C\L	.
8D\J	8a/
!!LO:LB:g=original
=18||	=18||
8E\	16g/LL
.	16f/
8C\	16e/
.	16d/JJ
[4G\	8c/L
.	8d/J
=19	=19
16G\LL]	8e/
16F\	.
16E\	8c/
16D\JJ	.
8C\L	[4g/
8BB\J	.
=20	=20
8r	16g/LL]
.	16f/
8AA/	16e/
.	16d/JJ
[4E\	8c/L
.	8B/J
=21	=21
16E\LL]	8r
16D\	.
16C\	8A/
16BB\JJ	.
8AA/L	[4e/
8GG/J	.
=22	=22
8r	16e/LL]
.	16d/
8AA/	16c/
.	16B/JJ
16C\LL	8A/L
16D\J	.
[8E\J	8G/J
=23	=23
16E\LL]	8r
16D\	.
16C\	8A/
16BB\JJ	.
8AA/L	16c/LL
.	16d/J
8GG/J	8e/J
=24	=24
8FF/	16e/LL
.	16d/
4FT\	16c/
.	16B/JJ
.	8A/L
8G\	8G/J
=25	=25
16D\LL	8F/
16C\	.
16BB\	4f/
16AA\JJ	.
16BB\LL	.
16AA\J	.
8BB\J	8g/
=26	=26
8BB\	16d/LL
.	16c/
4.GG/	16B/
.	16A/JJ
.	16B/LL
.	16A/J
.	8B/J
=27	=27
!LO:N:vis=2.	!
2C\	2c/
==	==
*-	*-
!!!system-decoration: {(s1,s2)}
!!!RDF**kern: > = above
!!!RDF**kern: < = below
!!!RDF**kern: i = editorial accidental
!!!ENC: Katarzyna Serwa
!!!END: 2021-10-23
!!!ENC: Filip Voros
!!!END: 2021-10-22
!!!YEC: Copyright 2022 Narodowy Instytut Fryderyka Chopina (https://polishscores.org)
!!!YEM: Licence CC BY 4.0 (https://creativecommons.org/licenses/by/4.0)
